!!!COM:	la Rue, Pierre de
!!!CDT:	~1452///-1518/11/20
!!!OTL:	Magnificat Sexti toni
!!!AGN:	Motet
!!!SCT:	Rue2012
!!!SCA:	Rue2012
!!!voices:	7
**kern	**kern	**kern	**kern	**kern	**kern	**kern
*staff7	*staff6	*staff5	*staff4	*staff3	*staff2	*staff1
*Ivox	*Ivox	*Ivox	*Ivox	*Ivox	*Ivox	*Ivox
*I"Bassus	*I"Quintus	*I"Tenor2	*I"Tenor1	*I"Contratenor	*I"Discantus2	*I"Discantus1
*I'B	*I'Q	*I'T2	*I'T1	*I'Ct	*I'D2	*I'D1
*>[A,B,C,D,E,F]	*>[A,B,C,D,E,F]	*>[A,B,C,D,E,F]	*>[A,B,C,D,E,F]	*>[A,B,C,D,E,F]	*>[A,B,C,D,E,F]	*>[A,B,C,D,E,F]
*>A	*>A	*>A	*>A	*>A	*>A	*>A
*clefF4	*clefF4	*clefGv2	*clefGv2	*clefGv2	*clefG2	*clefG2
*k[]	*k[]	*k[]	*k[]	*k[]	*k[]	*k[]
*M2/1	*M2/1	*M2/1	*M2/1	*M2/1	*M2/1	*M2/1
*met(C|)	*met(C|)	*met(C|)	*met(C|)	*met(C|)	*met(C|)	*met(C|)
!!section: Et exultavit
!!!OMD: Et exultavit
=1-	=1-	=1-	=1-	=1-	=1-	=1-
0r	0r	0r	[0F/	0r	0r	1.f/
.	.	.	.	.	.	4e/
.	.	.	.	.	.	4d/
=2	=2	=2	=2	=2	=2	=2
0r	0r	0r	0F/]	0r	0r	2.f/
.	.	.	.	.	.	4g/
.	.	.	.	.	.	2a/
.	.	.	.	.	.	[2d/
=3	=3	=3	=3	=3	=3	=3
0r	0r	0r	[0G/	1.B-\	0r	2d/]
.	.	.	.	.	.	1g/
.	.	.	.	4A/	.	4f/
.	.	.	.	4G/	.	4e/
=4	=4	=4	=4	=4	=4	=4
0r	0r	0r	0G/]	2.B-\i	0r	2.g/
.	.	.	.	4c\	.	4a/
.	.	.	.	2d\	.	2b\
.	.	.	.	2G/	.	2e/
=5	=5	=5	=5	=5	=5	=5
1.F\	0r	0r	0A/	2r	0r	2r
.	.	.	.	2c\	.	1a/
.	.	.	.	2d\	.	.
4E\	.	.	.	[2f\	.	4g/
4D\	.	.	.	.	.	4f/
=6	=6	=6	=6	=6	=6	=6
2.F\	0r	0r	1A/	2f\]	0r	2.a/
.	.	.	.	4e\	.	.
4G\	.	.	.	4d\	.	4b\
2A\	.	.	[1A/	2c\	.	2cc\
[2D\	.	.	.	[2d\	.	2f/
=7	=7	=7	=7	=7	=7	=7
2D\]	0r	0r	2A/]	2d\]	0r	1a/
1F\	.	.	4G/	4c\	.	.
.	.	.	4F/	4B\	.	.
.	.	.	2.A/	1A/	.	[1a/
4E\	.	.	.	.	.	.
4D\	.	.	4B\	.	.	.
=8	=8	=8	=8	=8	=8	=8
2.F\	0r	0r	2c\	2r	0r	1a/]
.	.	.	2F/	2d\	.	.
4G\	.	.	.	.	.	.
2A\	.	.	1A/	2c\	.	1a/
[2D\	.	.	.	[2d\	.	.
=9	=9	=9	=9	=9	=9	=9
2D\]	0r	0r	1A/	2d\]	0r	1f/
1F\	.	.	.	2c\	.	.
.	.	.	1A/	[1c\	.	2f/
[2C/	.	.	.	.	.	[2e/
=10	=10	=10	=10	=10	=10	=10
2C/]	0r	0r	0A/	1c\]	0r	2e/]
2C/	.	.	.	.	.	2e/
1D\	.	.	.	1F/	.	1f/
=11	=11	=11	=11	=11	=11	=11
1E\	0r	0r	1G/	2r	0r	1g/
.	.	.	.	2.c\	.	.
1C/	.	.	[1A/	.	.	1e/
.	.	.	.	4d\	.	.
.	.	.	.	2e\	.	.
=12	=12	=12	=12	=12	=12	=12
1D\	0r	0r	1A/]	0d\	0r	1f/
[1GG/	.	.	1B\	.	.	[1g/
=13	=13	=13	=13	=13	=13	=13
1GG/]	0r	0r	1G/	1B\	0r	1g/]
1C/	.	.	[1A/	1c\	.	1e/
=14	=14	=14	=14	=14	=14	=14
1D\	0r	0r	1A/]	1A/	0r	1f/
1GG/	.	.	1B\	1G/	.	[1g/
=15	=15	=15	=15	=15	=15	=15
1.C/	0r	0r	1G/	1r	0r	2g/]
.	.	.	.	.	.	2e/
.	.	.	[1A/	[1C/	.	1e/
2BB/	.	.	.	.	.	.
=16	=16	=16	=16	=16	=16	=16
1AA/	0r	0r	1A/]	1C/]	0r	1f/
1GG/	.	.	1B\	[1D/	.	[1g/
=17	=17	=17	=17	=17	=17	=17
0BB-/i	0r	0r	0G/	1D/]	0r	2g/]
.	.	.	.	.	.	4f/
.	.	.	.	.	.	4e/
.	.	.	.	1D/	.	1d/
=18	=18	=18	=18	=18	=18	=18
1.AA/	0r	0r	0A/	1E/	0r	0c/
.	.	.	.	2E/	.	.
4GG/	.	.	.	[2F/	.	.
4FF/	.	.	.	.	.	.
=19	=19	=19	=19	=19	=19	=19
1GG/	0r	0r	0r	2F/]	0r	0r
.	.	.	.	2E/	.	.
2FF/	.	.	.	2F/	.	.
[2BB-/i	.	.	.	[2G/	.	.
=20	=20	=20	=20	=20	=20	=20
4BB-/]	0r	0r	0r	4G/]	0r	0r
4AA/	.	.	.	4F/	.	.
4GG/	.	.	.	1F/	.	.
4FF/	.	.	.	.	.	.
1GG/	.	.	.	.	.	.
.	.	.	.	2E/	.	.
=21	=21	=21	=21	=21	=21	=21
0FF/	0r	0r	0r	1F/	0r	1r
.	.	.	.	2.F/	.	[1c/
.	.	.	.	4G/	.	.
=22	=22	=22	=22	=22	=22	=22
0r	0r	0r	0r	2A/	0r	2c/]
.	.	.	.	1A/	.	2d/
.	.	.	.	.	.	2e/
.	.	.	.	4G/	.	[2f/
.	.	.	.	4F/	.	.
=23	=23	=23	=23	=23	=23	=23
0r	0r	0r	0r	1G/	0r	2f/]
.	.	.	.	.	.	2e/
.	.	.	.	2F/	.	2f/
.	.	.	.	[2B-\	.	[2g/
=24	=24	=24	=24	=24	=24	=24
0r	0r	0r	0r	4B-\]	0r	4g/]
.	.	.	.	4A/	.	4f/
.	.	.	.	4G/	.	1f/
.	.	.	.	4F/	.	.
.	.	.	.	1G/	.	.
.	.	.	.	.	.	2e/
=25	=25	=25	=25	=25	=25	=25
1F\	0r	0r	1A/	1F/	0r	1f/
1F\	.	.	1A/	1c\	.	1f/
=26	=26	=26	=26	=26	=26	=26
2.F\	0r	0r	[0A/	1c\	0r	1f/
4G\	.	.	.	.	.	.
2A\	.	.	.	[1c\	.	1f/
2F\	.	.	.	.	.	.
=27	=27	=27	=27	=27	=27	=27
2.A\	0r	0r	0A/]	1c\]	0r	2.f/
4B\	.	.	.	.	.	4g/
[1c\	.	.	.	1f\	.	2a/
.	.	.	.	.	.	2f/
=28	=28	=28	=28	=28	=28	=28
2c\]	0r	0r	2.F/	2f\	0r	2.a/
2F\	.	.	.	1f\	.	.
.	.	.	4G/	.	.	4b\
[1F\	.	.	2A/	.	.	[1cc\
.	.	.	2F/	4e\	.	.
.	.	.	.	4d\	.	.
=29	=29	=29	=29	=29	=29	=29
1F\]	0r	0r	2.A/	0c\	0r	1cc\]
.	.	.	4B\	.	.	.
2.FF/	.	.	2c\	.	.	2a/
.	.	.	2F/	.	.	[2cc\
4GG/	.	.	.	.	.	.
=30	=30	=30	=30	=30	=30	=30
2AA/	0r	0r	0A/	2.A/	0r	4cc\]
.	.	.	.	.	.	4b\
2FF/	.	.	.	.	.	1a/
.	.	.	.	4B\	.	.
2AA/	.	.	.	2c\	.	.
2BB/	.	.	.	2d\	.	4g/
.	.	.	.	.	.	4f/
=31	=31	=31	=31	=31	=31	=31
1C/	0r	0r	1G/	0c\	0r	[0e/
2r	.	.	2r	.	.	.
[2A\	.	.	[2c\	.	.	.
=32	=32	=32	=32	=32	=32	=32
2A\]	0r	0r	2c\]	0r	0r	0e/_
2G\	.	.	2B\	.	.	.
2A\	.	.	2c\	.	.	.
[2c\	.	.	[2A/	.	.	.
=33	=33	=33	=33	=33	=33	=33
2c\]	0r	0r	2A/]	1r	0r	0e/]
2B\	.	.	2G/	.	.	.
2c\	.	.	2A/	2r	.	.
2C/	.	.	[2G/	[2c\	.	.
=34	=34	=34	=34	=34	=34	=34
2E\	0r	0r	2G/]	2c\]	0r	1r
2F\	.	.	4F/	4B\	.	.
.	.	.	4E/	4A/	.	.
1D\	.	.	1F/	1B\	.	1f/
=35	=35	=35	=35	=35	=35	=35
0C/	0r	0r	1G/	2c\	0r	2.e/
.	.	.	.	1e\	.	.
.	.	.	.	.	.	4f/
.	.	.	1r	.	.	2g/
.	.	.	.	2c\	.	[2a/
=36	=36	=36	=36	=36	=36	=36
0r	0r	0r	0r	2e\	0r	4a/]
.	.	.	.	.	.	4g/
.	.	.	.	2f\	.	1cc\
.	.	.	.	1d\	.	.
.	.	.	.	.	.	2b\
=37	=37	=37	=37	=37	=37	=37
0r	0r	0r	0r	2.c\	0r	1.cc\
.	.	.	.	4B\	.	.
.	.	.	.	2A/	.	.
.	.	.	.	4G/	.	4b\
.	.	.	.	4F/	.	4a/
=38	=38	=38	=38	=38	=38	=38
0r	0r	0r	0r	2.E/	0r	1.g/
.	.	.	.	4F/	.	.
.	.	.	.	2G/	.	.
.	.	.	.	[2A/	.	2c/
=39	=39	=39	=39	=39	=39	=39
0r	0r	0r	0r	4A/]	0r	2.e/
.	.	.	.	4G/	.	.
.	.	.	.	1c\	.	.
.	.	.	.	.	.	4f/
.	.	.	.	.	.	1d/
.	.	.	.	2B\	.	.
=40	=40	=40	=40	=40	=40	=40
0r	0r	0r	1r	1c\	0r	1c/
.	.	.	2r	1C/	.	[1g/
.	.	.	2G/	.	.	.
=41	=41	=41	=41	=41	=41	=41
0r	0r	0r	2B\	0r	0r	1g/]
.	.	.	2c\	.	.	.
.	.	.	1A/	.	.	1f/
=42	=42	=42	=42	=42	=42	=42
2r	0r	0r	2.G/	2r	0r	1g/
2C/	.	.	.	1c\	.	.
.	.	.	4F/	.	.	.
2E\	.	.	2E/	.	.	2g/
2F\	.	.	2D/	2F/	.	[2a/
=43	=43	=43	=43	=43	=43	=43
1D\	0r	0r	1F/	2A/	0r	2a/]
.	.	.	.	2B\	.	4g/
.	.	.	.	.	.	4f/
2.C/	.	.	2G/	[1c\	.	2e/
.	.	.	2E/	.	.	2g/
4BB/	.	.	.	.	.	.
=44	=44	=44	=44	=44	=44	=44
2AA/	0r	0r	2F/	2c\]	0r	2a/
2GG/	.	.	2G/	2B\	.	2b\
2C/	.	.	2E/	2.A/	.	2cc\
2D\	.	.	[2A/	.	.	[2f/
.	.	.	.	4B\	.	.
=45	=45	=45	=45	=45	=45	=45
1C/	0r	0r	2A/]	1c\	0r	2f/]
.	.	.	1G/	.	.	2e/
2r	.	.	.	2r	.	2f/
2FF/	.	.	2F/	2c\	.	2a/
=46	=46	=46	=46	=46	=46	=46
2.C/	0r	0r	2E/	2.e\	0r	2g/
.	.	.	2G/	.	.	2e/
4BB/	.	.	.	4d\	.	.
2AA/	.	.	2A/	2c\	.	2f/
2GG/	.	.	2B\	2B\	.	2g/
=47	=47	=47	=47	=47	=47	=47
1AA/	0r	0r	2c\	2A/	0r	2e/
.	.	.	1F/	2.c\	.	1a/
2FF/	.	.	.	.	.	.
.	.	.	.	4B\	.	.
2GG/	.	.	2E/	2G/	.	[2g/
=48	=48	=48	=48	=48	=48	=48
2AA/	0r	0r	2F/	[0c\l	0r	2g/]
2FF/	.	.	2A/	.	.	1f/
1C/	.	.	1G/	.	.	.
.	.	.	.	.	.	2e/
=49	=49	=49	=49	=49	=49	=49
0FF/l	0r	0r	0F/l	0c\]	0r	0f/l
!!LO:LB:i:g=z
=50||	=50||	=50||	=50||	=50||	=50||	=50||
*>B	*>B	*>B	*>B	*>B	*>B	*>B
*clefF4	*clefF4	*clefGv2	*clefGv2	*clefG2	*clefG2	*clefG2
*k[]	*k[]	*k[]	*k[]	*k[]	*k[]	*k[]
*M2/1	*M2/1	*M2/1	*M2/1	*M2/1	*M2/1	*M2/1
*met(C|)	*met(C|)	*met(C|)	*met(C|)	*met(C|)	*met(C|)	*met(C|)
!!section: Quia fecit mihi magna
!!!OMD: Quia fecit mihi magna
*>[C,D,E,F,G,H]	*>[C,D,E,F,G,H]	*>[C,D,E,F,G,H]	*>[C,D,E,F,G,H]	*>[C,D,E,F,G,H]	*>[C,D,E,F,G,H]	*>[C,D,E,F,G,H]
*>A	*>A	*>A	*>A	*>A	*>A	*>A
0r	0r	0r	0r	[0f/	0r	2.f/
.	.	.	.	.	.	4g/
.	.	.	.	.	.	4a/
.	.	.	.	.	.	4b\
.	.	.	.	.	.	[2cc\
=51	=51	=51	=51	=51	=51	=51
0r	0r	0r	0r	1f/]	0r	2cc\]
.	.	.	.	.	.	4b\
.	.	.	.	.	.	4a/
.	.	.	.	1g/	.	2.b\
.	.	.	.	.	.	4cc\
=52	=52	=52	=52	=52	=52	=52
0r	0r	0r	2.F/	1a/	0r	2f/
.	.	.	.	.	.	2.cc\
.	.	.	4G/	.	.	.
.	.	.	4A/	[1a/	.	.
.	.	.	4B\	.	.	4b\
.	.	.	[2c\	.	.	[2a/
=53	=53	=53	=53	=53	=53	=53
0r	0r	0r	2c\]	1a/]	0r	4a/]
.	.	.	.	.	.	4g/
.	.	.	4B\	.	.	4f/
.	.	.	4A/	.	.	4e/
.	.	.	2.B\	1g/	.	1d/
.	.	.	4c\	.	.	.
=54	=54	=54	=54	=54	=54	=54
0r	0r	0r	2A/	0a/	0r	1e/
.	.	.	2.c\	.	.	.
.	.	.	.	.	.	2r
.	.	.	4B\	.	.	.
.	.	.	4A/	.	.	[2a/
.	.	.	4G/	.	.	.
=55	=55	=55	=55	=55	=55	=55
0r	0r	0r	2F/	0r	0r	2a/]
.	.	.	2G/	.	.	2g/
.	.	.	1A/	.	.	2f/
.	.	.	.	.	.	[2e/
=56	=56	=56	=56	=56	=56	=56
0r	0r	0r	2G/	0r	0r	2e/]
.	.	.	2F/	.	.	2d/
.	.	.	1E/	.	.	2c/
.	.	.	.	.	.	[2B/
=57	=57	=57	=57	=57	=57	=57
0r	0r	0r	1D/	0r	0r	4B/]
.	.	.	.	.	.	4A/
.	.	.	.	.	.	1d/
.	.	.	2F/	.	.	.
.	.	.	2E/	.	.	[2c/
=58	=58	=58	=58	=58	=58	=58
0r	0r	0r	2.A/	1a/	0r	2c/]
.	.	.	.	.	.	2f/
.	.	.	4B\	.	.	.
.	.	.	2.c\	1a/	.	2e/
.	.	.	.	.	.	[2a/
.	.	.	4B\	.	.	.
=59	=59	=59	=59	=59	=59	=59
0r	0r	0r	4A/	0a/	0r	4a/]
.	.	.	4G/	.	.	4b\
.	.	.	1F/	.	.	2.cc\
.	.	.	.	.	.	4b\
.	.	.	[2F/	.	.	4a/
.	.	.	.	.	.	4g/
=60	=60	=60	=60	=60	=60	=60
0r	0r	0r	4F/]	0a/	0r	2f/
.	.	.	4E/	.	.	.
.	.	.	4D/	.	.	1g/
.	.	.	4C/	.	.	.
.	.	.	1D/	.	.	.
.	.	.	.	.	.	2f#/i
=61	=61	=61	=61	=61	=61	=61
0r	0r	0r	2r	0g/	0r	1g/
.	.	.	1B\	.	.	.
.	.	.	.	.	.	1r
.	.	.	4A/	.	.	.
.	.	.	4G/	.	.	.
=62	=62	=62	=62	=62	=62	=62
0r	0r	0r	2A/	2r	0r	0r
.	.	.	2G/	1b\	.	.
.	.	.	1D/	.	.	.
.	.	.	.	4a/	.	.
.	.	.	.	4g/	.	.
=63	=63	=63	=63	=63	=63	=63
0r	0r	0r	2r	2a/	0r	2r
.	.	.	1G/	2g/	.	1b\
.	.	.	.	1d/	.	.
.	.	.	4F/	.	.	4a/
.	.	.	4E/	.	.	4g/
=64	=64	=64	=64	=64	=64	=64
0r	0r	0r	2F/	2r	0r	2a/
.	.	.	2G/	1e/	.	1g/
.	.	.	1C/	.	.	.
.	.	.	.	4d/	.	[2cc\
.	.	.	.	4c/	.	.
=65	=65	=65	=65	=65	=65	=65
0r	0r	0r	2r	1d/	0r	2cc\]
.	.	.	2G/	.	.	2b\
.	.	.	2.A/	1c/	.	2.cc\
.	.	.	4G/	.	.	4b\
=66	=66	=66	=66	=66	=66	=66
0r	0r	0r	2F/	0r	0r	2a/
.	.	.	2E/	.	.	1g/
.	.	.	2F/	.	.	.
.	.	.	2A/	.	.	[2f/
=67	=67	=67	=67	=67	=67	=67
0r	0r	0r	1G/	1g/	0r	2f/]
.	.	.	.	.	.	2e/
.	.	.	2r	1a/	.	2f/
.	.	.	2F/	.	.	2a/
=68	=68	=68	=68	=68	=68	=68
0r	0r	0r	2E/	0b\	0r	2g/
.	.	.	2F/	.	.	1f/
.	.	.	1G/	.	.	.
.	.	.	.	.	.	2e/
=69	=69	=69	=69	=69	=69	=69
0r	0r	0r	1F/	0a/	0r	1f/
.	.	.	2D/	.	.	2r
.	.	.	[2F/	.	.	[2a/
=70	=70	=70	=70	=70	=70	=70
0r	0r	0r	2F/]	1r	0r	2a/]
.	.	.	2E/	.	.	2g/
.	.	.	2D/	2r	.	2f/
.	.	.	[2A/	[2a/	.	[2cc\
=71	=71	=71	=71	=71	=71	=71
0r	0r	0r	4A/]	2a/]	0r	2cc\]
.	.	.	4G/	.	.	.
.	.	.	2E/	2g/	.	2b\
.	.	.	2r	2f/	.	2a/
.	.	.	[2A/	[2cc\	.	4g/
.	.	.	.	.	.	4f/
=72	=72	=72	=72	=72	=72	=72
0r	0r	0r	2A/]	2cc\]	0r	1e/
.	.	.	2G/	2b\	.	.
.	.	.	2F/	2a/	.	1f/
.	.	.	[2d\	[2b\	.	.
=73	=73	=73	=73	=73	=73	=73
0r	0r	0r	2d\]	2b\]	0r	2f/
.	.	.	2c\	1a/	.	1e/
.	.	.	1B\	.	.	.
.	.	.	.	2g#/i	.	2d/
=74	=74	=74	=74	=74	=74	=74
0r	0r	0r	1A/	0a/	0r	2e/
.	.	.	.	.	.	1c/
.	.	.	1F/	.	.	.
.	.	.	.	.	.	[2f/
=75	=75	=75	=75	=75	=75	=75
0r	0r	0r	1B-\	0r	0r	2f/]
.	.	.	.	.	.	1d/
.	.	.	1G/	.	.	.
.	.	.	.	.	.	[2g/
=76	=76	=76	=76	=76	=76	=76
0r	0r	0r	2.c\	0r	0r	4g/]
.	.	.	.	.	.	4f/
.	.	.	.	.	.	1e/
.	.	.	4B\	.	.	.
.	.	.	2.A/	.	.	.
.	.	.	.	.	.	[2a/
.	.	.	4G/	.	.	.
=77	=77	=77	=77	=77	=77	=77
0r	0r	0r	4F/	0a/	0r	4a/]
.	.	.	4E/	.	.	4g/
.	.	.	1D/	.	.	4f/
.	.	.	.	.	.	4e/
.	.	.	.	.	.	2d/
.	.	.	2C/	.	.	[2e/
=78	=78	=78	=78	=78	=78	=78
0r	0r	0r	2D/	1a/	0r	2e/]
.	.	.	2F/	.	.	1d/
.	.	.	1E/	1g/	.	.
.	.	.	.	.	.	2c#/i
=79	=79	=79	=79	=79	=79	=79
0r	0r	0r	1D/	2.f/	0r	0d/
.	.	.	.	4g/	.	.
.	.	.	2r	2a/	.	.
.	.	.	[2G/	[2b-\i	.	.
=80	=80	=80	=80	=80	=80	=80
0r	0r	0r	4G/]	4b-\]	0r	0r
.	.	.	4A/	4a/	.	.
.	.	.	2B\	4g/	.	.
.	.	.	.	4f/	.	.
.	.	.	2.c\	2.e/	.	.
.	.	.	4B\	4f/	.	.
=81	=81	=81	=81	=81	=81	=81
0r	0r	0r	4A/	2g/	0r	0r
.	.	.	4G/	.	.	.
.	.	.	2.F/	2.a/	.	.
.	.	.	4G/	4g/	.	.
.	.	.	2A/	4f/	.	.
.	.	.	.	4e/	.	.
=82	=82	=82	=82	=82	=82	=82
0r	0r	0r	1B-\i	2.d/	0r	2.f/
.	.	.	.	4e/	.	4g/
.	.	.	2A/	2f/	.	2a/
.	.	.	[2G/	2g/	.	[2b-\i
=83	=83	=83	=83	=83	=83	=83
0r	0r	0r	4G/]	2e/	0r	4b-\]
.	.	.	4F/	.	.	4a/
.	.	.	4E/	2.g/	.	4g/
.	.	.	4D/	.	.	4f/
.	.	.	1C/	.	.	2.e/
.	.	.	.	4f/	.	.
.	.	.	.	4e/	.	.
.	.	.	.	4d/	.	4f/
=84	=84	=84	=84	=84	=84	=84
0r	0r	0r	2r	1c/	0r	2g/
.	.	.	2.F/	.	.	2.a/
.	.	.	.	1r	.	.
.	.	.	4G/	.	.	4g/
.	.	.	2A/	.	.	4f/
.	.	.	.	.	.	4e/
=85	=85	=85	=85	=85	=85	=85
0r	0r	0r	2.B-\	2.d/	0r	1d/
.	.	.	4A/	4e/	.	.
.	.	.	4G/	2f/	.	1r
.	.	.	4F/	.	.	.
.	.	.	[2E/	[2g/	.	.
=86	=86	=86	=86	=86	=86	=86
0r	0r	0r	2E/]	4g/]	0r	0r
.	.	.	.	4f/	.	.
.	.	.	2.A/	4e/	.	.
.	.	.	.	4d/	.	.
.	.	.	.	1c/	.	.
.	.	.	4B\	.	.	.
.	.	.	2c\	.	.	.
=87	=87	=87	=87	=87	=87	=87
0r	0r	0r	2.d\	2.f/	0r	0r
.	.	.	4c\	4g/	.	.
.	.	.	4B\	2a/	.	.
.	.	.	4A/	.	.	.
.	.	.	[2G/	[2b-\i	.	.
=88	=88	=88	=88	=88	=88	=88
0r	0r	0r	4G/]	4b-\]	0r	1r
.	.	.	4A/	4a/	.	.
.	.	.	2B\	4g/	.	.
.	.	.	.	4f/	.	.
.	.	.	2.c\	2.e/	.	2.g/
.	.	.	4B\	4f/	.	4a/
=89	=89	=89	=89	=89	=89	=89
0r	0r	0r	4A/	2g/	0r	2b\
.	.	.	4G/	.	.	.
.	.	.	2.F/	2.a/	.	2.cc\
.	.	.	4G/	4g/	.	4b\
.	.	.	2A/	4f/	.	4a/
.	.	.	.	4e/	.	4g/
=90	=90	=90	=90	=90	=90	=90
0r	0r	0r	2B-\i	1d/	0r	2f/
.	.	.	2.B-\i	.	.	1g/
.	.	.	.	1r	.	.
.	.	.	4A/	.	.	.
.	.	.	4G/	.	.	[2f/
.	.	.	4F/	.	.	.
=91	=91	=91	=91	=91	=91	=91
0r	0r	0r	1G/	1r	0r	2f/]
.	.	.	.	.	.	2e/
.	.	.	1F/	2r	.	2f/
.	.	.	.	[2a/	.	[2cc\
=92	=92	=92	=92	=92	=92	=92
0r	0r	0r	0r	2a/]	0r	2cc\]
.	.	.	.	2f/	.	2a/
.	.	.	.	2g/	.	2b\
.	.	.	.	2e/	.	2g/
=93	=93	=93	=93	=93	=93	=93
0r	0r	0r	2F/	2f/	0r	1.a/
.	.	.	1c\	2e/	.	.
.	.	.	.	1c/	.	.
.	.	.	2A/	.	.	2f/
=94	=94	=94	=94	=94	=94	=94
0r	0r	0r	2B\	1r	0r	2g/
.	.	.	2G/	.	.	2e/
.	.	.	1A/	2r	.	2f/
.	.	.	.	[2a/	.	[2cc\
=95	=95	=95	=95	=95	=95	=95
0r	0r	0r	1F/	2a/]	0r	2cc\]
.	.	.	.	2f/	.	2a/
.	.	.	1r	2g/	.	2b\
.	.	.	.	2e/	.	2g/
=96	=96	=96	=96	=96	=96	=96
0r	0r	0r	2F/	2f/	0r	1.a/
.	.	.	1c\	4e/	.	.
.	.	.	.	4d/	.	.
.	.	.	.	2c/	.	.
.	.	.	2A/	[2d/	.	2f/
=97	=97	=97	=97	=97	=97	=97
0r	0r	0r	4B-\i	2d/]	0r	2g/
.	.	.	4A/	.	.	.
.	.	.	4G/	1c/	.	1f/
.	.	.	4F/	.	.	.
.	.	.	1G/	.	.	.
.	.	.	.	2B-/i	.	2e/
=98	=98	=98	=98	=98	=98	=98
0r	0r	0r	0F/l	0c/l	0r	0f/l
!!LO:LB:i:g=z
=99||	=99||	=99||	=99||	=99||	=99||	=99||
*>D	*>D	*>D	*>D	*>D	*>D	*>D
*clefF4	*clefF4	*clefGv2	*clefGv2	*clefG2	*clefG2	*clefG2
*k[]	*k[]	*k[]	*k[]	*k[]	*k[]	*k[]
*M2/1	*M2/1	*M2/1	*M2/1	*M2/1	*M2/1	*M2/1
*met(C|)	*met(C|)	*met(C|)	*met(C|)	*met(C|)	*met(C|)	*met(C|)
!!section: Fecit potentiam in brachio suo
!!!OMD: Fecit potentiam in brachio suo
0r	0r	0r	[0F/	0r	0r	1f/
.	.	.	.	.	.	2f/
.	.	.	.	.	.	[2a/
=100	=100	=100	=100	=100	=100	=100
0r	0r	0r	0F/]	0r	0r	4a/]
.	.	.	.	.	.	4b\
.	.	.	.	.	.	2cc\
.	.	.	.	.	.	2a/
.	.	.	.	.	.	2cc\
=101	=101	=101	=101	=101	=101	=101
0r	0r	0r	0G/	0r	0r	2b\
.	.	.	.	.	.	2g/
.	.	.	.	.	.	1dd\
=102	=102	=102	=102	=102	=102	=102
1FF/	0r	0r	[0A/	[0c/	0r	1.cc\
2FF/	.	.	.	.	.	.
[2AA/	.	.	.	.	.	[2a/
=103	=103	=103	=103	=103	=103	=103
4AA/]	0r	0r	0A/]	0c/]	0r	4a/]
4BB/	.	.	.	.	.	4g/
2C/	.	.	.	.	.	1e/
2AA/	.	.	.	.	.	.
2C/	.	.	.	.	.	[2a/
=104	=104	=104	=104	=104	=104	=104
2BB/	0r	0r	0r	0d/	0r	2a/]
2GG/	.	.	.	.	.	1g/
1D\	.	.	.	.	.	.
.	.	.	.	.	.	2f/
=105	=105	=105	=105	=105	=105	=105
1C/	0r	0r	0r	[0e/	1c/	1g/
1AA/	.	.	.	.	2c/	1c/
.	.	.	.	.	[2e/	.
=106	=106	=106	=106	=106	=106	=106
1r	0r	0r	0r	0e/]	4e/]	1r
.	.	.	.	.	4f/	.
.	.	.	.	.	2g/	.
1E\	.	.	.	.	2e/	1c/
.	.	.	.	.	2g/	.
=107	=107	=107	=107	=107	=107	=107
0F\	0r	0r	0r	0r	2f/	1d/
.	.	.	.	.	2d/	.
.	.	.	.	.	1a/	1d/
=108	=108	=108	=108	=108	=108	=108
1E\	0r	0r	1r	0r	1g/	1.e/
1AA/	.	.	1A/	.	1e/	.
.	.	.	.	.	.	2c/
=109	=109	=109	=109	=109	=109	=109
1r	0r	0r	1A/	1r	1r	0c/
1AA/	.	.	1A/	1e/	1a/	.
=110	=110	=110	=110	=110	=110	=110
1AA/	0r	0r	0A/	1e/	1a/	1r
1AA/	.	.	.	1e/	[1a/	1cc\
=111	=111	=111	=111	=111	=111	=111
0AA/	0r	0r	0A/	0e/	2a/]	1cc\
.	.	.	.	.	4g/	.
.	.	.	.	.	4f/	.
.	.	.	.	.	1e/	1cc\
=112	=112	=112	=112	=112	=112	=112
0C/	0r	0r	1.G/	0e/	1e/	2cc\
.	.	.	.	.	.	4b\
.	.	.	.	.	.	4a/
.	.	.	.	.	[1g/	[1g/
.	.	.	2A/	.	.	.
=113	=113	=113	=113	=113	=113	=113
0GG/	0r	0r	0B\	1.d/	2g/]	1g/]
.	.	.	.	.	4f/	.
.	.	.	.	.	4e/	.
.	.	.	.	.	[1d/	[1dd\
.	.	.	.	2e/	.	.
=114	=114	=114	=114	=114	=114	=114
0D\	0r	0r	0A/	0f/	1d/]	2dd\]
.	.	.	.	.	.	4cc\
.	.	.	.	.	.	4b\
.	.	.	.	.	1d/	1a/
=115	=115	=115	=115	=115	=115	=115
2.AA/	0r	0r	1A/	[0e/	[0c/	2r
.	.	.	.	.	.	2a/
4BB/	.	.	.	.	.	.
2C/	.	.	2G/	.	.	2e/
2AA/	.	.	[2A/	.	.	[2cc\
=116	=116	=116	=116	=116	=116	=116
2.C/	0r	0r	2A/]	0e/]	0c/]	4cc\]
.	.	.	.	.	.	4b\
.	.	.	1c\	.	.	2a/
4D\	.	.	.	.	.	.
2E\	.	.	.	.	.	2g/
2AA/	.	.	4B\	.	.	2a/
.	.	.	4A/	.	.	.
=117	=117	=117	=117	=117	=117	=117
2.C/	0r	0r	2G/	1e/	0r	2e/
.	.	.	1A/	.	.	2.cc\
4D\	.	.	.	.	.	.
1E\	.	.	.	[1e/	.	.
.	.	.	.	.	.	4b\
.	.	.	2G/	.	.	[2b\
=118	=118	=118	=118	=118	=118	=118
1AA/	0r	0r	2A/	1e/]	0r	2b\]
.	.	.	2c\	.	.	1a/
1r	.	.	1B\	1d/	.	.
.	.	.	.	.	.	2g#/i
=119	=119	=119	=119	=119	=119	=119
1r	0r	0r	[0A/	0e/	0r	[0a/
2.AA/	.	.	.	.	.	.
4BB/	.	.	.	.	.	.
=120	=120	=120	=120	=120	=120	=120
2C/	0r	0r	0A/]	0r	1r	0a/]
1D\	.	.	.	.	.	.
.	.	.	.	.	2.A/	.
2F\	.	.	.	.	.	.
.	.	.	.	.	4B/	.
=121	=121	=121	=121	=121	=121	=121
2E\	0r	0r	1r	0r	2c/	0r
2D\	.	.	.	.	1d/	.
2.F\	.	.	1A/	.	.	.
.	.	.	.	.	2f/	.
4G\	.	.	.	.	.	.
=122	=122	=122	=122	=122	=122	=122
2A\	0r	0r	1A/	0r	2e/	0r
1D\	.	.	.	.	2d/	.
.	.	.	[1A/	.	2.f/	.
4C/	.	.	.	.	.	.
4BB/	.	.	.	.	4g/	.
=123	=123	=123	=123	=123	=123	=123
2AA/	0r	0r	1A/]	0r	2a/	0r
1F\	.	.	.	.	1d/	.
.	.	.	1A/	.	.	.
4E\	.	.	.	.	4c/	.
4D\	.	.	.	.	4B/	.
=124	=124	=124	=124	=124	=124	=124
2C/	0r	0r	1A/	0r	2A/	0r
2D\	.	.	.	.	1d/	.
1AA/	.	.	[1A/	.	.	.
.	.	.	.	.	2c/	.
=125	=125	=125	=125	=125	=125	=125
0r	0r	0r	1A/]	0r	2d/	1r
.	.	.	.	.	2f/	.
.	.	.	2r	.	1e/	2.e/
.	.	.	2c\	.	.	.
.	.	.	.	.	.	4f/
=126	=126	=126	=126	=126	=126	=126
0r	0r	0r	2B\	1r	0r	2g/
.	.	.	2A/	.	.	1a/
.	.	.	2c\	1e/	.	.
.	.	.	4B\	.	.	2cc\
.	.	.	4A/	.	.	.
=127	=127	=127	=127	=127	=127	=127
0r	0r	0r	2G/	1e/	0r	2b\
.	.	.	1A/	.	.	2a/
.	.	.	.	[1e/	.	2.cc\
.	.	.	4G/	.	.	.
.	.	.	4F/	.	.	4b\
=128	=128	=128	=128	=128	=128	=128
0r	0r	0r	2E/	1e/]	1r	2g/
.	.	.	1c\	.	.	1a/
.	.	.	.	1e/	2r	.
.	.	.	4B\	.	2c/	4g/
.	.	.	4A/	.	.	4f/
=129	=129	=129	=129	=129	=129	=129
0r	0r	0r	2G/	1e/	2B/	2e/
.	.	.	2A/	.	2A/	1a/
.	.	.	1E/	[1e/	1B/	.
.	.	.	.	.	.	2g#/i
=130	=130	=130	=130	=130	=130	=130
1AA/	0r	0r	0r	1e/]	1A/	0a/
2AA/	.	.	.	1e/	2.c/	.
[2C/	.	.	.	.	.	.
.	.	.	.	.	4d/	.
=131	=131	=131	=131	=131	=131	=131
2C/]	0r	0r	0r	1e/	2e/	0r
2D\	.	.	.	.	2f/	.
1E\	.	.	.	1c/	1g/	.
=132	=132	=132	=132	=132	=132	=132
[0D\	0r	0r	0A/	[0d/	1.f/	1a/
.	.	.	.	.	.	2a/
.	.	.	.	.	4e/	[2a/
.	.	.	.	.	4d/	.
=133	=133	=133	=133	=133	=133	=133
0D\]	0r	0r	1A/	0d/]	2.f/	4a/]
.	.	.	.	.	.	4g/
.	.	.	.	.	.	1f/
.	.	.	.	.	4g/	.
.	.	.	[1A/	.	[1a/	.
.	.	.	.	.	.	4e/
.	.	.	.	.	.	4d/
=134	=134	=134	=134	=134	=134	=134
0AA/	0r	0r	1A/]	[0e/	2a/]	0c/
.	.	.	.	.	4g/	.
.	.	.	.	.	4f/	.
.	.	.	1A/	.	2e/	.
.	.	.	.	.	2A/	.
=135	=135	=135	=135	=135	=135	=135
1AA/	0r	0r	1.c\	0e/]	0A/	1r
1AA/	.	.	.	.	.	1cc\
.	.	.	4B\	.	.	.
.	.	.	4A/	.	.	.
=136	=136	=136	=136	=136	=136	=136
1.C/	0r	0r	0G/	1e/	1r	1cc\
.	.	.	.	1c/	[1e/	1cc\
4BB/	.	.	.	.	.	.
4AA/	.	.	.	.	.	.
=137	=137	=137	=137	=137	=137	=137
1GG/	0r	0r	1G/	1d/	2e/]	1b\
.	.	.	.	.	2f/	.
1GG/	.	.	1G/	1B/	1g/	1b\
=138	=138	=138	=138	=138	=138	=138
1FF/	0r	0r	2A/	[0c/	2c/	2a/
.	.	.	2F/	.	1f/	2.cc\
1C/	.	.	1G/	.	.	.
.	.	.	.	.	.	4b\
.	.	.	.	.	2e/	4a/
.	.	.	.	.	.	4g/
=139	=139	=139	=139	=139	=139	=139
1FF/	0r	0r	2r	0c/]	1f/	2a/
.	.	.	2F/	.	.	1f/
1C/	.	.	1G/	.	2r	.
.	.	.	.	.	2g/	2e/
=140	=140	=140	=140	=140	=140	=140
2FF/	0r	0r	2F/	2r	2a/	2f/
2C/	.	.	2E/	1c/	2e/	2g/
1D\	.	.	1F/	.	2.a/	2f/
.	.	.	.	2B/	.	2d/
.	.	.	.	.	8g/L	.
.	.	.	.	.	8f/J	.
=141	=141	=141	=141	=141	=141	=141
1C/	0r	0r	0G/	1c/	4e/	2.e/
.	.	.	.	.	4d/	.
.	.	.	.	.	1c/	.
.	.	.	.	.	.	4f/
2r	.	.	.	1d/	.	1d/
2GG/	.	.	.	.	2B/	.
=142	=142	=142	=142	=142	=142	=142
2C/	0r	0r	1r	2e/	2c/	1c/
2E\	.	.	.	1c/	2.g/	.
1D\	.	.	2r	.	.	1r
.	.	.	.	.	4f/	.
.	.	.	2F/	2B/	2d/	.
=143	=143	=143	=143	=143	=143	=143
1C/	0r	0r	0G/	1c/	2e/	2r
.	.	.	.	.	2.g/	2c/
1G\	.	.	.	2r	.	1d/
.	.	.	.	.	4f/	.
.	.	.	.	2B/	2d/	.
=144	=144	=144	=144	=144	=144	=144
2E\	0r	0r	0r	1c/	2c/	2e/
2C/	.	.	.	.	2e/	2.g/
1G\	.	.	.	2r	1d/	.
.	.	.	.	.	.	4a/
.	.	.	.	2B/	.	2b\
=145	=145	=145	=145	=145	=145	=145
1C/	0r	0r	0r	2c/	2r	2g/
.	.	.	.	2e/	1g/	1cc\
1r	.	.	.	1d/	.	.
.	.	.	.	.	2f/	2b\
=146	=146	=146	=146	=146	=146	=146
0r	0r	0r	2r	[0c/	2g/	2cc\
.	.	.	1F/	.	2f/	2a/
.	.	.	.	.	1g/	1g/
.	.	.	2E/	.	.	.
=147	=147	=147	=147	=147	=147	=147
1FF/	0r	0r	1F/	0c/]	2a/	1f/
.	.	.	.	.	1f/	.
1C/	.	.	1G/	.	.	1r
.	.	.	.	.	2e/	.
=148	=148	=148	=148	=148	=148	=148
1FF/	0r	0r	2A/	[0c/l	2f/	2r
.	.	.	1F/	.	2a/	2f/
2r	.	.	.	.	1g/	1g/
2C/	.	.	2E/	.	.	.
=149	=149	=149	=149	=149	=149	=149
2AA/	0r	0r	1F/	0c/_	2r	2a/
2FF/	.	.	.	.	2f/	2.cc\
1C/	.	.	2r	.	1g/	.
.	.	.	.	.	.	4b\
.	.	.	2E/	.	.	2g/
=150	=150	=150	=150	=150	=150	=150
1FF/	0r	0r	1F/	0c/_	2f/	2a/
.	.	.	.	.	2.cc\	2f/
1C/	.	.	2r	.	.	2g/
.	.	.	.	.	4b\	.
.	.	.	2E/	.	2g/	[2cc\
=151	=151	=151	=151	=151	=151	=151
2AA/	0r	0r	2F/	0c/_	2.a/	4cc\]
.	.	.	.	.	.	4b\
2FF/	.	.	2A/	.	.	4a/
.	.	.	.	.	8g/L	4f/
.	.	.	.	.	8f/J	.
1C/	.	.	1G/	.	4e/	1g/
.	.	.	.	.	4d/	.
.	.	.	.	.	2e/	.
=152	=152	=152	=152	=152	=152	=152
[0FF/l	0r	0r	[0F/l	0c/_	[0f/l	[0a/
=153	=153	=153	=153	=153	=153	=153
0FF/_	0r	0r	0F/_	0c/_	0f/_	1a/]
.	.	.	.	.	.	1f/
=154	=154	=154	=154	=154	=154	=154
*	*	*	*	*	*	*^
0FF/]	0r	0r	0F/]	0c/]	0f/]	0f\l	0a/l
*	*	*	*	*	*	*v	*v
!!LO:LB:i:g=z
=155||	=155||	=155||	=155||	=155||	=155||	=155||
*>E	*>E	*>E	*>E	*>E	*>E	*>E
*clefF4	*clefF4	*clefGv2	*clefGv2	*clefGv2	*clefG2	*clefG2
*k[]	*k[]	*k[]	*k[]	*k[]	*k[]	*k[]
*M2/1	*M2/1	*M2/1	*M2/1	*M2/1	*M2/1	*M2/1
*met(C|)	*met(C|)	*met(C|)	*met(C|)	*met(C|)	*met(C|)	*met(C|)
!!section: Esurientes implevit bonis
!!!OMD: Esurientes implevit bonis
0r	0r	0r	0F/	1c\	0r	0r
.	.	.	.	2c\	.	.
.	.	.	.	[2d\	.	.
=156	=156	=156	=156	=156	=156	=156
0r	0r	0r	1G/	4d\]	0r	0r
.	.	.	.	4c\	.	.
.	.	.	.	4B\	.	.
.	.	.	.	4A/	.	.
.	.	.	1G/	1B\	.	.
=157	=157	=157	=157	=157	=157	=157
0FF/	0r	0r	2.A/	0A/	0r	0r
.	.	.	4B\	.	.	.
.	.	.	2c\	.	.	.
.	.	.	[2d\	.	.	.
=158	=158	=158	=158	=158	=158	=158
1GG/	0r	0r	4d\]	1D/	0r	0r
.	.	.	4c\	.	.	.
.	.	.	4B\	.	.	.
.	.	.	4A/	.	.	.
1GG/	.	.	1B\	2.G/	.	.
.	.	.	.	8F/L	.	.
.	.	.	.	8E/J	.	.
=159	=159	=159	=159	=159	=159	=159
0AA/	0r	0r	0A/	1.E/	0r	2.c/
.	.	.	.	.	.	4d/
.	.	.	.	.	.	2e/
.	.	.	.	4D/	.	[2f/
.	.	.	.	4C/	.	.
=160	=160	=160	=160	=160	=160	=160
0BB/	0r	0r	1F/	1D/	0r	4f/]
.	.	.	.	.	.	4e/
.	.	.	.	.	.	4d/
.	.	.	.	.	.	4c/
.	.	.	1G/	1D/	.	1d/
=161	=161	=161	=161	=161	=161	=161
2.AA/	0r	0r	2.A/	2E/	0r	1c/
.	.	.	.	1A/	.	.
4BB/	.	.	4G/	.	.	.
2C/	.	.	4F/	.	.	1r
.	.	.	4E/	.	.	.
[2D\	.	.	[2F/	[2B-\i	.	.
=162	=162	=162	=162	=162	=162	=162
4D\]	0r	0r	2F/]	4B-\]	0r	0r
4C/	.	.	.	4A/	.	.
4BB/	.	.	1E/	4G/	.	.
4AA/	.	.	.	4F/	.	.
1BB/	.	.	.	1G/	.	.
.	.	.	2D/	.	.	.
=163	=163	=163	=163	=163	=163	=163
0AA/	0r	0r	1E/	0A/	0r	2.c/
.	.	.	.	.	.	4d/
.	.	.	1r	.	.	2e/
.	.	.	.	.	.	[2f/
=164	=164	=164	=164	=164	=164	=164
0r	0r	0r	0r	0B-\i	0r	4f/]
.	.	.	.	.	.	4e/
.	.	.	.	.	.	4d/
.	.	.	.	.	.	4c/
.	.	.	.	.	.	1d/
=165	=165	=165	=165	=165	=165	=165
[0AA/	0r	0r	0A/	2r	0r	1.c/
.	.	.	.	2A/	.	.
.	.	.	.	2c\	.	.
.	.	.	.	2d\	.	4B/
.	.	.	.	.	.	4A/
=166	=166	=166	=166	=166	=166	=166
0AA/]	0r	0r	0A/	2e\	0r	2c/
.	.	.	.	2f\	.	2d/
.	.	.	.	2e\	.	2e/
.	.	.	.	2c\	.	2f/
=167	=167	=167	=167	=167	=167	=167
[0GG/	0r	0r	[0B\	1.d\	0r	[0g/
.	.	.	.	2G/	.	.
=168	=168	=168	=168	=168	=168	=168
0GG/]	0r	0r	0B\]	2d\	0r	0g/]
.	.	.	.	1G/	.	.
.	.	.	.	2G/	.	.
=169	=169	=169	=169	=169	=169	=169
[0AA/	0r	0r	1.A/	2E/	0r	1c/
.	.	.	.	2A/	.	.
.	.	.	.	2c\	.	2r
.	.	.	4G/	2d\	.	2A/
.	.	.	4F/	.	.	.
=170	=170	=170	=170	=170	=170	=170
0AA/]	0r	0r	2E/	2e\	0r	2c/
.	.	.	2.A/	2f\	.	2d/
.	.	.	.	2e\	.	2e/
.	.	.	4G/	.	.	.
.	.	.	2A/	2c\	.	2f/
=171	=171	=171	=171	=171	=171	=171
0BB/	0r	0r	0D/	2d\	0r	0g/
.	.	.	.	2G/	.	.
.	.	.	.	1d\	.	.
=172	=172	=172	=172	=172	=172	=172
0AA/	0r	0r	1r	0e\	0r	1c/
.	.	.	1A/	.	.	2c/
.	.	.	.	.	.	[2e/
=173	=173	=173	=173	=173	=173	=173
1GG/	0r	0r	1B\	1r	0r	2e/]
.	.	.	.	.	.	2d/
1AA/	.	.	2.A/	2r	.	2c/
.	.	.	.	[2c\	.	[2e/
.	.	.	4G/	.	.	.
=174	=174	=174	=174	=174	=174	=174
1GG/	0r	0r	4E/	2c\]	0r	2e/]
.	.	.	4F/	.	.	.
.	.	.	2G/	2B\	.	2d/
1AA/	.	.	1C/	2A/	.	2c/
.	.	.	.	[2c\	.	[2e/
=175	=175	=175	=175	=175	=175	=175
1GG/	0r	0r	1G/	2c\]	0r	4e/]
.	.	.	.	.	.	4f/
.	.	.	.	2B\	.	2g/
1AA/	.	.	2E/	1A/	.	1c/
.	.	.	[2A/	.	.	.
=176	=176	=176	=176	=176	=176	=176
0BB/	0r	0r	2A/]	1r	0r	0d/
.	.	.	4G#/i	.	.	.
.	.	.	4F#/i	.	.	.
.	.	.	1G#/i	1D/	.	.
=177	=177	=177	=177	=177	=177	=177
2.AA/	0r	0r	[0A/	1E/	0r	1c/
4BB/	.	.	.	.	.	.
2C/	.	.	.	2E/	.	1r
[2D\	.	.	.	[2F/	.	.
=178	=178	=178	=178	=178	=178	=178
4D\]	0r	0r	0A/]	4F/]	0r	1r
4C/	.	.	.	4E/	.	.
4D\	.	.	.	4F/	.	.
4C/	.	.	.	4E/	.	.
2D\	.	.	.	2F/	.	1d/
4C/	.	.	.	4E/	.	.
4BB/	.	.	.	4D/	.	.
=179	=179	=179	=179	=179	=179	=179
1AA/	0r	0r	0r	1C/	0r	1e/
1r	.	.	.	2G/	.	2e/
.	.	.	.	[2A/	.	[2f/
=180	=180	=180	=180	=180	=180	=180
0r	0r	0r	0r	4A/]	0r	4f/]
.	.	.	.	4G/	.	4e/
.	.	.	.	4A/	.	4f/
.	.	.	.	4G/	.	4e/
.	.	.	.	2A/	.	2f/
.	.	.	.	4G/	.	4e/
.	.	.	.	4F/	.	4d/
=181	=181	=181	=181	=181	=181	=181
0r	0r	0r	2.G/	1E/	0r	4c/
.	.	.	.	.	.	4d/
.	.	.	.	.	.	4e/
.	.	.	4A/	.	.	4f/
.	.	.	2B\	1r	.	2g/
.	.	.	[2c\	.	.	[2a/
=182	=182	=182	=182	=182	=182	=182
0r	0r	0r	4c\]	0r	0r	4a/]
.	.	.	4B\	.	.	4g/
.	.	.	4c\	.	.	4a/
.	.	.	4B\	.	.	4g/
.	.	.	2c\	.	.	2a/
.	.	.	4B\	.	.	4g/
.	.	.	4A/	.	.	4f/
=183	=183	=183	=183	=183	=183	=183
1r	0r	0r	1G/	0r	0r	[0e/
1E\	.	.	2r	.	.	.
.	.	.	2C/	.	.	.
=184	=184	=184	=184	=184	=184	=184
2.E\	0r	0r	2.G/	0r	0r	0e/]
4F\	.	.	4A/	.	.	.
2G\	.	.	2B\	.	.	.
[2A\	.	.	[2c\	.	.	.
=185	=185	=185	=185	=185	=185	=185
4A\]	0r	0r	4c\]	1r	0r	1r
4G\	.	.	4B\	.	.	.
4A\	.	.	4c\	.	.	.
4G\	.	.	4B\	.	.	.
2A\	.	.	2c\	2.c\	.	1e/
4G\	.	.	4B\	.	.	.
4F\	.	.	4A/	4d\	.	.
=186	=186	=186	=186	=186	=186	=186
2E\	0r	0r	2G/	2e\	0r	2g/
2D\	.	.	2F/	1f\	.	1a/
1C/	.	.	1G/	.	.	.
.	.	.	.	2e\	.	2g/
=187	=187	=187	=187	=187	=187	=187
1FF/	0r	0r	0r	2.f\	0r	2.a/
.	.	.	.	4e\	.	4g/
1r	.	.	.	4f\	.	4a/
.	.	.	.	4e\	.	4g/
.	.	.	.	[2f\	.	[2a/
=188	=188	=188	=188	=188	=188	=188
1r	0r	0r	1r	2f\]	0r	2a/]
.	.	.	.	4e\	.	4g/
.	.	.	.	4d\	.	4f/
1AA/	.	.	1A/	[1c\	.	1e/
=189	=189	=189	=189	=189	=189	=189
1AA/	0r	0r	1A/	0c\]	0r	1r
1AA/	.	.	1A/	.	.	1e/
=190	=190	=190	=190	=190	=190	=190
2.D\	0r	0r	[0A/	1d\	0r	2.f/
4C/	.	.	.	.	.	4e/
4D\	.	.	.	1A/	.	4f/
4C/	.	.	.	.	.	4e/
[2D\	.	.	.	.	.	[2f/
=191	=191	=191	=191	=191	=191	=191
2D\]	0r	0r	0A/]	1r	0r	2f/]
4C/	.	.	.	.	.	4e/
4BB/	.	.	.	.	.	4d/
2AA/	.	.	.	1e\	.	1c/
2AA/	.	.	.	.	.	.
=192	=192	=192	=192	=192	=192	=192
2.D\	0r	0r	1r	2.f\	0r	0r
4C/	.	.	.	4e\	.	.
4D\	.	.	1A/	4f\	.	.
4C/	.	.	.	4e\	.	.
[2D\	.	.	.	[2f\	.	.
=193	=193	=193	=193	=193	=193	=193
2D\]	0r	0r	1A/	2f\]	0r	0r
4C/	.	.	.	4e\	.	.
4BB/	.	.	.	4d\	.	.
1AA/	.	.	1F/	2.c\	.	.
.	.	.	.	4A/	.	.
=194	=194	=194	=194	=194	=194	=194
2GG/	0r	0r	[0G/	2B\	0r	2r
2C/	.	.	.	1c\	.	2c/
1GG/	.	.	.	.	.	1d/
.	.	.	.	2B\	.	.
=195	=195	=195	=195	=195	=195	=195
2.C/	0r	0r	0G/_	1c\	0r	2.e/
4D\	.	.	.	.	.	4f/
4E\	.	.	.	[1C/	.	4g/
4D\	.	.	.	.	.	4f/
[2E\	.	.	.	.	.	[2g/
=196	=196	=196	=196	=196	=196	=196
2E\]	0r	0r	0G/]	1C/]	0r	2g/]
4D\	.	.	.	.	.	4f/
4C/	.	.	.	.	.	4e/
1BB/	.	.	.	1D/	.	1d/
=197	=197	=197	=197	=197	=197	=197
2AA/	0r	0r	2.A/	2E/	0r	2c/
2D\	.	.	.	2F/	.	2f/
.	.	.	4B\	.	.	.
2C/	.	.	4c\	2G/	.	2e/
.	.	.	4B\	.	.	.
[2FF/	.	.	[2c\	[2F/	.	[2a/
=198	=198	=198	=198	=198	=198	=198
4FF/]	0r	0r	2c\]	4F/]	0r	4a/]
4GG/	.	.	.	4c\	.	4g/
4AA/	.	.	4B\	2.c\	.	1f/
4BB/	.	.	4A/	.	.	.
1C/	.	.	1G/	.	.	.
.	.	.	.	4B\	.	.
.	.	.	.	4A/	.	2e/
.	.	.	.	4G/	.	.
=199	=199	=199	=199	=199	=199	=199
0FF/l	0r	0r	0F/l	0A/l	0r	0f/l
!!LO:LB:i:g=z
=200||	=200||	=200||	=200||	=200||	=200||	=200||
*>F	*>F	*>F	*>F	*>F	*>F	*>F
*clefF4	*clefF4	*clefGv2	*clefGv2	*clefG2	*clefG2	*clefG2
*k[b-]	*k[]	*k[]	*k[]	*k[]	*k[]	*k[]
*M3/1	*M3/1	*M3/1	*M3/1	*M3/1	*M3/1	*M3/1
*met(3)	*met(C|3)	*met(3)	*met(3)	*met(3)	*met(3)	*met(3)
!!primary-mensuration: met(3)
!!section: Sicut locutus est ad patres nostros
!!!OMD: Sicut locutus est ad patres nostros
0FF/	0C/	0.r	0F/	0.r	0.r	0.r
1GG/	1BB/	.	1E/	.	.	.
=201	=201	=201	=201	=201	=201	=201
1AA/	1C/	0.r	0F/	0.r	0.r	0.r
0BB-/	1D\	.	.	.	.	.
.	1GG/	.	1G/	.	.	.
=202	=202	=202	=202	=202	=202	=202
0BB-/	1D\	0.r	1F/	0.r	0.r	0.r
.	1GG/	.	1G/	.	.	.
1BB-/	1D\	.	1F/	.	.	.
=203	=203	=203	=203	=203	=203	=203
1.AA/	0C/	0.r	1.c\	0.r	0.r	0.r
2FF/	.	.	2B\	.	.	.
1GG/	1r	.	1B\	.	.	.
=204	=204	=204	=204	=204	=204	=204
1AA/	1r	0.r	0A/	0.r	0.r	0.r
0BB-/	1r	.	.	.	.	.
.	1D\	.	1G/	.	.	.
=205	=205	=205	=205	=205	=205	=205
0AA/	1E\	0.r	0.A/	0.r	0.r	0.r
.	1.F\	.	.	.	.	.
1D\	.	.	.	.	.	.
.	2E\	.	.	.	.	.
=206	=206	=206	=206	=206	=206	=206
1E\	1C/	0.r	1r	0.r	0.r	0.r
1.F\	1.D\	.	1r	.	.	.
.	.	.	1A/	.	.	.
2E\	2E\	.	.	.	.	.
=207	=207	=207	=207	=207	=207	=207
1D\	1F\	0.r	1B\	0.r	0.r	0.r
1.C/	1.G\	.	1.c\	.	.	.
2D\	2F\	.	2B\	.	.	.
=208	=208	=208	=208	=208	=208	=208
1BB-/	1D\	0.r	1G/	0.r	0.r	0.r
0AA/	1E\	.	1A/	.	.	.
.	1A\	.	1c\	.	.	.
=209	=209	=209	=209	=209	=209	=209
1D\	1F\	0.r	1d\	0.r	0.r	0.r
1.C/	1.G\	.	1.e\	.	.	.
2D\	2F\	.	2d\	.	.	.
=210	=210	=210	=210	=210	=210	=210
1BB-/	2E\	0.r	0d\	0.r	0.r	0.r
.	2D\	.	.	.	.	.
0AA/	0E\	.	.	.	.	.
.	.	.	1c#\i	.	.	.
=211	=211	=211	=211	=211	=211	=211
0.r	0D\	0.r	1d\	0.r	0.r	0.r
.	.	.	1A/	.	.	.
.	1r	.	1d\	.	.	.
=212	=212	=212	=212	=212	=212	=212
0.r	1A\	0.r	1c\	0.r	0.r	0.r
.	1E\	.	1B\	.	.	.
.	1A\	.	1c\	.	.	.
=213	=213	=213	=213	=213	=213	=213
1D\	1D\	0.r	1d\	0.r	0.r	0.r
1AA/	1E\	.	2c\	.	.	.
.	.	.	2B\	.	.	.
1D\	1F\	.	1A/	.	.	.
=214	=214	=214	=214	=214	=214	=214
1GG/	1G\	0.r	1G/	0.r	0.r	0.r
1AA/	2F\	.	1r	.	.	.
.	2E\	.	.	.	.	.
1BB-/	1D\	.	1r	.	.	.
=215	=215	=215	=215	=215	=215	=215
1C/	1C/	0.r	0G/	0.r	0.r	0.r
2BB-/	1D\	.	.	.	.	.
2AA/	.	.	.	.	.	.
1GG/	1E\	.	1G/	.	.	.
=216	=216	=216	=216	=216	=216	=216
1FF/	1F\	0.r	1A/	0.r	0.r	0.r
1GG/	1D\	.	1.B-\i	.	.	.
[1AA/	1F\	.	.	.	.	.
.	.	.	2A/	.	.	.
=217	=217	=217	=217	=217	=217	=217
1AA/]	1E\	0.r	0A/	0.r	0.r	0.r
0BB-/	0D\	.	.	.	.	.
.	.	.	1G/	.	.	.
=218	=218	=218	=218	=218	=218	=218
*M2/1	*M2/1	*M2/1	*M2/1	*M2/1	*M2/1	*M2/1
*met(C|)	*met(C|)	*met(C|)	*met(C|)	*met(C|)	*met(C|)	*met(C|)
1AA/	1E\	0r	0A/	0r	0r	0r
2r	2r	.	.	.	.	.
[2D\	[2F\	.	.	.	.	.
=219	=219	=219	=219	=219	=219	=219
2D\]	2F\]	0r	1r	0r	0r	0r
2C/	2E\	.	.	.	.	.
2D\	2F\	.	[1A/	.	.	.
2C/	[2E\	.	.	.	.	.
=220	=220	=220	=220	=220	=220	=220
1D\	2E\]	0r	1A/]	0r	0r	0r
.	2D\	.	.	.	.	.
2AA/	2E\	.	1A/	.	.	.
[2F\	[2D\	.	.	.	.	.
=221	=221	=221	=221	=221	=221	=221
2F\]	2D\]	0r	[0A/	0r	0r	0r
2E\	2C/	.	.	.	.	.
2F\	2D\	.	.	.	.	.
[2E\	2C/	.	.	.	.	.
=222	=222	=222	=222	=222	=222	=222
2E\]	1D\	0r	0A/]	0r	0r	0r
2D\	.	.	.	.	.	.
1E\	1AA/	.	.	.	.	.
=223	=223	=223	=223	=223	=223	=223
0AA/	1E\	0r	1r	0r	0r	0r
.	2r	.	1A/	.	.	.
.	[2A\	.	.	.	.	.
=224	=224	=224	=224	=224	=224	=224
2r	2A\]	0r	1B\	0r	0r	0r
2E\	2G\	.	.	.	.	.
2F\	2A\	.	2A/	.	.	.
2E\	[2G\	.	2B\	.	.	.
=225	=225	=225	=225	=225	=225	=225
2F\	2G\]	0r	1A/	0r	0r	0r
2D\	2F\	.	.	.	.	.
2r	2G\	.	2B\	.	.	.
2D\	2F\	.	2A/	.	.	.
=226	=226	=226	=226	=226	=226	=226
2GG/	2G\	0r	2B\	0r	0r	0r
2AA/	1F\	.	2A/	.	.	.
2BB-/	.	.	1G/	.	.	.
2C/	2E\	.	.	.	.	.
=227	=227	=227	=227	=227	=227	=227
2FF/	1F\	0r	2r	0r	0r	0r
1F\	.	.	1A/	.	.	.
.	1C/	.	.	.	.	.
2E\	.	.	2G/	.	.	.
=228	=228	=228	=228	=228	=228	=228
2F\	2r	0r	2A/	0r	0r	0r
1BB-/	1D\	.	1G/	.	.	.
2AA/	2C/	.	2F/	.	.	.
=229	=229	=229	=229	=229	=229	=229
4BB-/	2D\	0r	2G/	0r	0r	0r
4AA/	.	.	.	.	.	.
4GG/	1C/	.	1F/	.	.	.
4FF/	.	.	.	.	.	.
1GG/	.	.	.	.	.	.
.	2BB/	.	2E/	.	.	.
=230	=230	=230	=230	=230	=230	=230
0FF/	0C/	0r	1F/	0r	0r	0r
.	.	.	1c\	.	.	.
=231	=231	=231	=231	=231	=231	=231
0r	1r	0r	2B-\i	0r	0r	0r
.	.	.	1A/	.	.	.
.	1F\	.	.	.	.	.
.	.	.	4G/	.	.	.
.	.	.	4F/	.	.	.
=232	=232	=232	=232	=232	=232	=232
0r	2E\	0r	2G/	0r	0r	0r
.	1D\	.	1F/	.	.	.
.	4C/	.	4E/	.	.	.
.	4BB/	.	4D/	.	.	.
=233	=233	=233	=233	=233	=233	=233
1r	2C/	0r	2E/	0r	0r	0r
.	1BB-/i	.	1D/	.	.	.
1D\	.	.	.	.	.	.
.	4AA/	.	2G/	.	.	.
.	4GG/	.	.	.	.	.
=234	=234	=234	=234	=234	=234	=234
2C/	2AA/	0r	2F/	0r	0r	0r
1BB-/	1GG/	.	2.G/	.	.	.
.	.	.	4A/	.	.	.
4AA/	2G\	.	2B-\i	.	.	.
4GG/	.	.	.	.	.	.
=235	=235	=235	=235	=235	=235	=235
2AA/	2F\	0r	2A/	0r	0r	0r
1GG/	1G\	.	2B-\i	.	.	.
.	.	.	1G/	.	.	.
[2C/	4F\	.	.	.	.	.
.	4E\	.	.	.	.	.
=236	=236	=236	=236	=236	=236	=236
2C/]	1D\	0r	0r	0r	0r	0r
2BB-/	.	.	.	.	.	.
2C/	2C/	.	.	.	.	.
2AA/	[2F\	.	.	.	.	.
=237	=237	=237	=237	=237	=237	=237
1GG/	2F\]	1r	1G/	1r	1r	1r
.	2E\	.	.	.	.	.
[1FF/	1F\	1r	1A/	1r	1r	1r
=238	=238	=238	=238	=238	=238	=238
1FF/]	2r	1r	1A/	1r	1r	1r
.	2F\	.	.	.	.	.
1r	2E\	1r	2G/	1r	1r	1r
.	[2F\	.	[2A/	.	.	.
=239	=239	=239	=239	=239	=239	=239
1FF/	2F\]	1r	2A/]	1r	1r	1r
.	4E\	.	4G/	.	.	.
.	4D\	.	4F/	.	.	.
1C/	1E\	1r	1G/	1r	1r	1r
=240	=240	=240	=240	=240	=240	=240
2r	2r	1r	2r	1r	1r	1r
2FF/	2A\	.	2F/	.	.	.
2C/	2G\	1r	2E/	1r	1r	1r
2FF/	[2A\	.	[2F/	.	.	.
=241	=241	=241	=241	=241	=241	=241
1F\	2A\]	1r	2F/]	1r	1r	1r
.	4G\	.	4E/	.	.	.
.	4F\	.	4D/	.	.	.
1C/	1G\	1r	1E/	1r	1r	1r
=242	=242	=242	=242	=242	=242	=242
2r	2r	1r	2r	1r	1r	1r
2C/	2G\	.	2E/	.	.	.
2FF/	2A\	1r	2F/	1r	1r	1r
2C/	2G\	.	2E/	.	.	.
=243	=243	=243	=243	=243	=243	=243
2FF/	2A\	1r	2F/	1r	1r	1r
2C/	2E\	.	2G/	.	.	.
2AA/	2C/	1r	2A/	1r	1r	1r
2BB-/	2D\	.	2G/	.	.	.
=244	=244	=244	=244	=244	=244	=244
2C/	2E\	1r	2A/	1r	1r	1r
2D\	2F\	.	2B\	.	.	.
[1C/	1G\	1r	2.c\	1r	1r	1r
.	.	.	4B\	.	.	.
=245	=245	=245	=245	=245	=245	=245
0C/_	1E\	1r	4A/	1r	1r	1r
.	.	.	4G/	.	.	.
.	.	.	1A/	.	.	.
.	1AA/	1r	.	1r	1r	1r
.	.	.	4G/	.	.	.
.	.	.	4F/	.	.	.
=246	=246	=246	=246	=246	=246	=246
1C/]	1E\	1r	2G/	1r	1r	1r
.	.	.	2.c\	.	.	.
2.C/	2r	1r	.	1r	1r	1r
.	.	.	4B\	.	.	.
.	[2E\	.	4A/	.	.	.
4BB-/	.	.	4G/	.	.	.
=247	=247	=247	=247	=247	=247	=247
4AA/	4E\]	1r	2A/	1r	1r	1r
4GG/	4D\	.	.	.	.	.
1AA/	1C/	.	4G/	.	.	.
.	.	.	4F/	.	.	.
.	.	1r	2E/	1r	1r	1r
4GG/	4BB-/i	.	[2F/	.	.	.
4FF/	4AA/	.	.	.	.	.
=248	=248	=248	=248	=248	=248	=248
1GG/	2.BB-/i	1r	2F/]	1r	1r	1r
.	.	.	2E/	.	.	.
.	4AA/	.	.	.	.	.
2.FF/	2C/	1r	[1F/l	1r	1r	1r
.	[2F\	.	.	.	.	.
4GG/	.	.	.	.	.	.
=249	=249	=249	=249	=249	=249	=249
2AA/	4F\]	1r	0F/_	1r	1r	1r
.	4E\	.	.	.	.	.
1BB-/	1D\	.	.	.	.	.
.	.	1r	.	1r	1r	1r
2AA/	[2C/	.	.	.	.	.
=250	=250	=250	=250	=250	=250	=250
1BB-/	2C/]	1r	0F/]	1r	1r	1r
.	2BB-/i	.	.	.	.	.
1FF/l	1C/l	1r	.	1r	1r	1r
!!LO:LB:i:g=z
=251||	=251||	=251||	=251||	=251||	=251||	=251||
*>G	*>G	*>G	*>G	*>G	*>G	*>G
*clefF4	*clefF4	*clefGv2	*clefGv2	*clefGv2	*clefG2	*clefG2
*k[b-]	*k[]	*k[]	*k[]	*k[]	*k[]	*k[]
*M2/1	*M2/1	*M2/1	*M2/1	*M2/1	*M2/1	*M2/1
*met(C)	*met(C)	*met(C)	*met(C)	*met(C)	*met(C)	*met(C)
!!section: Sicut erat in principio
!!!OMD: Sicut erat in principio
1FF/	0r	1c\	1F/	0F/	0r	1a/
1AA/	.	1c\	1C/	.	.	1a/
=252	=252	=252	=252	=252	=252	=252
1GG/	0r	1B\	2.D/	1G/	0r	1b\
.	.	.	4E/	.	.	.
1FF/	.	[1A/	4F/	2.A/	.	[1cc\
.	.	.	4G/	.	.	.
.	.	.	[2A/	.	.	.
.	.	.	.	4G/	.	.
=253	=253	=253	=253	=253	=253	=253
1AA/	0r	2A/]	4A/]	2E/	0r	2cc\]
.	.	.	4G/	.	.	.
.	.	4B\	1F/	2F/	.	4b\
.	.	4c\	.	.	.	4a/
1GG/	.	2d\	.	1G/	.	1b\
.	.	2G/	2E/	.	.	.
=254	=254	=254	=254	=254	=254	=254
0FF/	0r	2.A/	2F/	1C/	0r	2a/
.	.	.	2.A/	.	.	2.cc\
.	.	4B\	.	.	.	.
.	.	2c\	.	1r	.	.
.	.	.	4G/	.	.	4b\
.	.	2d\	2F/	.	.	2a/
=255	=255	=255	=255	=255	=255	=255
1r	0r	2e\	2E/	2r	0r	2g/
.	.	2.A/	1F/	2.c\	.	2.a/
1F\	.	.	.	.	.	.
.	.	4B\	.	4B\	.	4g/
.	.	4c\	2F/	2A/	.	2f/
.	.	4d\	.	.	.	.
=256	=256	=256	=256	=256	=256	=256
2C/	0r	2e\	2G/	2G/	0r	2e/
1F\	.	2f\	2.F/	2.A/	.	2A/
.	.	1c\	.	.	.	1a/
.	.	.	4G/	4G/	.	.
2F\	.	.	4A/	2F/	.	.
.	.	.	4B\	.	.	.
=257	=257	=257	=257	=257	=257	=257
2.C/	0r	2r	2.c\	0E/	0r	1.g/
.	.	1G/	.	.	.	.
4D\	.	.	4B\	.	.	.
2E\	.	.	1G/	.	.	.
2C/	.	[2c\	.	.	.	4f/
.	.	.	.	.	.	4e/
=258	=258	=258	=258	=258	=258	=258
1G\	0r	2c\]	1r	0r	0r	1d/
.	.	2B\	.	.	.	.
1C/	.	1c\	1G/	.	.	[1c/
=259	=259	=259	=259	=259	=259	=259
2AA/	0r	1e\	1.A/	2.C/	0r	1c/]
1C/	.	.	.	.	.	.
.	.	.	.	4D/	.	.
.	.	1c\	.	2E/	.	1r
4BB-/	.	.	4G/	[2F/	.	.
4AA/	.	.	4F/	.	.	.
=260	=260	=260	=260	=260	=260	=260
1GG/	0r	1B-\i	1G/	2F/]	0r	1g/
.	.	.	.	2E/	.	.
[1FF/	.	1A/	1c\	[1F/	.	[1a/
=261	=261	=261	=261	=261	=261	=261
1FF/]	0r	2F/	2A/	2F/]	0r	2a/]
.	.	1A/	1c\	4E/	.	4g/
.	.	.	.	4D/	.	4f/
1r	.	.	.	2C/	.	2e/
.	.	4G/	4B\	2D/	.	2f/
.	.	4F/	4A/	.	.	.
=262	=262	=262	=262	=262	=262	=262
1GG/	0r	2.E/	1G/	1E/	0r	1g/
.	.	4D/	.	.	.	.
2.FF/	.	2F/	[1A/	2r	.	2c/
.	.	[2c\	.	[2AA/	.	2f/
4GG/	.	.	.	.	.	.
=263	=263	=263	=263	=263	=263	=263
2AA/	0r	4c\]	1A/]	4AA/]	0r	2e/
.	.	4B\	.	4BB/	.	.
2FF/	.	2A/	.	4C/	.	2f/
.	.	.	.	4D/	.	.
2.C/	.	1G/	1r	2.E/	.	2g/
.	.	.	.	.	.	2cc\
4D\	.	.	.	4F/	.	.
=264	=264	=264	=264	=264	=264	=264
2E\	0r	2r	0r	0G/	0r	2b\
2C/	.	2c\	.	.	.	2cc\
1G\	.	2.B\	.	.	.	1dd\
.	.	4c\	.	.	.	.
=265	=265	=265	=265	=265	=265	=265
2.GG/	0r	[0d\	0r	2r	0r	1r
.	.	.	.	1G/	.	.
4AA/	.	.	.	.	.	.
2BB-/	.	.	.	.	.	[1dd\
2GG/	.	.	.	4F/	.	.
.	.	.	.	4E/	.	.
=266	=266	=266	=266	=266	=266	=266
0D\	0r	0d\]	1A/	2D/	0r	2dd\]
.	.	.	.	1G/	.	4cc\
.	.	.	.	.	.	4b\
.	.	.	2A/	.	.	1a/
.	.	.	2A/	2F/	.	.
=267	=267	=267	=267	=267	=267	=267
0GG/	0r	1r	1B\	2G/	0r	2r
.	.	.	.	1B\	.	1g/
.	.	[1d\	2G/	.	.	.
.	.	.	[2B\	4A/	.	4f/
.	.	.	.	4G/	.	4e/
=268	=268	=268	=268	=268	=268	=268
1r	0r	1d\]	4B\]	2F/	0r	2d/
.	.	.	4A/	.	.	.
.	.	.	2B\	2G/	.	1g/
1D\	.	1d\	1A/	1A/	.	.
.	.	.	.	.	.	2f/
=269	=269	=269	=269	=269	=269	=269
1GG/	0r	2.B-\i	1G/	0r	0r	2g/
.	.	.	.	.	.	2.b-\i
.	.	8A/L	.	.	.	.
.	.	8G/J	.	.	.	.
1D\	.	1F/	1A/	.	.	.
.	.	.	.	.	.	4a/
.	.	.	.	.	.	[2a/
=270	=270	=270	=270	=270	=270	=270
2r	0r	2r	1B\	0r	0r	2a/]
2GG/	.	2G/	.	.	.	2g/
2D\	.	2.A/	2A/	.	.	2f/
2C/	.	.	[2c\	.	.	[2e/
.	.	4B\	.	.	.	.
=271	=271	=271	=271	=271	=271	=271
1AA/	0r	4c\	4c\]	0r	0r	2e/]
.	.	4d\	4B\	.	.	.
.	.	1e\	1A/	.	.	4d/
.	.	.	.	.	.	4c/
1E\	.	.	.	.	.	1B/
.	.	2E/	2G#/i	.	.	.
=272	=272	=272	=272	=272	=272	=272
[0AA/	0r	2r	[0A/	2r	0r	0A/
.	.	1e\	.	1A/	.	.
.	.	2e\	.	2A/	.	.
=273	=273	=273	=273	=273	=273	=273
1AA/]	0r	2e\	1A/]	2A/	0r	1r
.	.	2e\	.	2A/	.	.
2r	.	[1c\	1r	[1A/	.	2r
[2AA/	.	.	.	.	.	[2cc\
=274	=274	=274	=274	=274	=274	=274
2AA/]	0r	1c\]	2r	1A/]	0r	2cc\]
2AA/	.	.	1A/	.	.	2cc\
2AA/	.	1r	.	1r	.	2cc\
2AA/	.	.	2A/	.	.	2cc\
=275	=275	=275	=275	=275	=275	=275
0AA/	0r	1c\	2A/	1A/	0r	1cc\
.	.	.	2A/	.	.	.
.	.	2c\	[1A/	2A/	.	2a/
.	.	[2c\	.	[2A/	.	[2cc\
=276	=276	=276	=276	=276	=276	=276
0r	0r	2c\]	1A/]	4A/]	0r	4cc\]
.	.	.	.	4G/	.	4b\
.	.	2F/	.	1F/	.	2a/
.	.	1G/	1r	.	.	1g/
.	.	.	.	2E/	.	.
=277	=277	=277	=277	=277	=277	=277
1r	0r	0F/	1A/	2.F/	0r	1.a/
.	.	.	.	4E/	.	.
1AA/	.	.	2A/	[1C/	.	.
.	.	.	[2A/	.	.	4g/
.	.	.	.	.	.	4f/
=278	=278	=278	=278	=278	=278	=278
2AA/	0r	0r	2A/]	1C/]	0r	1e/
1AA/	.	.	4G/	.	.	.
.	.	.	4F/	.	.	.
.	.	.	2E/	1r	.	1r
2FF/	.	.	[2F/	.	.	.
=279	=279	=279	=279	=279	=279	=279
1GG/	0r	1r	2F/]	1r	0r	1g/
.	.	.	2E/	.	.	.
[1FF/	.	2.A/	[1F/	2.F/	.	2a/
.	.	.	.	.	.	[2a/
.	.	4B\	.	4E/	.	.
=280	=280	=280	=280	=280	=280	=280
1FF/]	0r	2c\	1F/]	2C/	0r	2a/]
.	.	2d\	.	1F/	.	2f/
1r	.	1c\	1r	.	.	2g/
.	.	.	.	2E/	.	2g/
=281	=281	=281	=281	=281	=281	=281
2r	0r	[0c\	1A/	1F/	0r	1f/
2F\	.	.	.	.	.	.
2E\	.	.	2G/	1r	.	2g/
2F\	.	.	[2F/	.	.	[2a/
=282	=282	=282	=282	=282	=282	=282
1C/	0r	0c\]	2F/]	1r	0r	4a/]
.	.	.	.	.	.	4f/
.	.	.	2E/	.	.	2g/
2.FF/	.	.	2F/	1F/	.	2f/
.	.	.	2c\	.	.	2a/
4AA/	.	.	.	.	.	.
=283	=283	=283	=283	=283	=283	=283
2GG/	0r	0r	2B\	2G/	0r	2b\
1FF/	.	.	1A/	2.A/	.	2.cc\
.	.	.	.	4F/	.	4a/
2EE/	.	.	2G/	2G/	.	2b\
=284	=284	=284	=284	=284	=284	=284
1FF/	0r	1c\	2.A/	2F/	0r	1a/
.	.	.	.	2A/	.	.
.	.	.	4F/	.	.	.
1r	.	2B\	2G/	2B\	.	2g/
.	.	[2A/	[2F/	[2c\	.	[2a/
=285	=285	=285	=285	=285	=285	=285
1r	0r	2A/]	2F/]	4c\]	0r	4a/]
.	.	.	.	4A/	.	4f/
.	.	2G/	2E/	2B\	.	2g/
1FF/	.	1A/	2F/	2A/	.	2f/
.	.	.	2A/	2AA/	.	2cc\
=286	=286	=286	=286	=286	=286	=286
2GG/	0r	0r	2G/	2BB/	0r	2b\
2.AA/	.	.	1F/	2.C/	.	1a/
4FF/	.	.	.	4AA/	.	.
2GG/	.	.	2E/	2BB/	.	2g/
=287	=287	=287	=287	=287	=287	=287
2FF/	0r	2.c\	2F/	2AA/	0r	2a/
2C/	.	.	2E/	2E/	.	2g/
.	.	4B\	.	.	.	.
2D\	.	2A/	2F/	2D/	.	2f/
[2E\	.	2G/	2C/	[2C/	.	[2g/
=288	=288	=288	=288	=288	=288	=288
4E\]	0r	2A/	1F/	4C/]	0r	4g/]
4C/	.	.	.	4AA/	.	4c/
2D\	.	2D/	.	2BB/	.	1f/
1C/	.	2E/	1G/	1C/	.	.
.	.	2C/	.	.	.	2e/
=289	=289	=289	=289	=289	=289	=289
0FF/l	0r	1D/	0F/l	0C/l	0r	0f/l
.	.	1C/l	.	.	.	.
==	==	==	==	==	==	==
*-	*-	*-	*-	*-	*-	*-
!!!RDF**kern: l=long note in original notation
!!!RDF**kern: i=editorial accidental
!!!ENC:	Megan K. Eagen 2013/01/22
!!!END:	2013/01/22/
!!!EED:	Jesse Rodin
!!!EEV:	2013/08/05/
!!!ONB:	Translated from MusicXML and edited on 2013/08/05/ by Craig Sapp
!!muse2ps: C^@{COM}^i2I150v85,85,85,85,85,85,100Q16
